X:=3
T:Angel Eyes
C:Mat Dennis
L:1/8
M:C
I:linebreak $
K:Bb
"Gm" z2 Gd"A7" _d3 c |"Gm" B2 BG"Eb7" B4 |"Gm6" z GBd"Eø" (3a2 _a2 g2 |"Aø" d4"Ab7" z4 |$
"Gm" z2 Gd"A7" _d3 c |"Gm" B2 BG"Eb7" B3 G |"Gm6" BGBG"Eb7" B2 B2 Ox///||1
"Gm" G4"Ab7" z4 :|2$"Gm" G4"Gb7" z2 G2 ||[K:Eb]"Fm" g4"Bb7" z2 fg |"Eb" BB z2"Cm" z4 |$
"Fm" gfgf"Bb7" g2 f2 |"Eb" B4"Cm" z2 g2 ||[K:D]"Em" f4"A7" z2 ef |$"D" AA z2"Bm" z2 B2 |
"G#m" (3c2 c2 c2"G7" c2 c2 ||[K:Bb]"Aø" d4"Ab7""_D.C. al Coda" z4 ||$Ox/"Gm" G4"Eb7" z4 |
"Aø" dc z G/E/"Ab7" f2 z d/c/ |"Gm6" d8 | z8 |]

